app2/assets/access_icon.svg

<svg width="40" height="40" viewBox="0 0 40 40" fill="none" xmlns="http://www.w3.org/2000/svg">
<rect width="40" height="40" rx="8" fill="url(#paint0_linear_529_95)"/>
<path fill-rule="evenodd" clip-rule="evenodd" d="M14.3515 8.00885C14.2659 8.02229 14.0952 8.12725 13.9722 8.24213C13.7501 8.44966 13.7489 8.4543 13.7954 8.95863C13.8212 9.23785 13.873 9.84616 13.9104 10.3105C14.2022 13.9301 14.2501 15.014 14.1218 15.0933C13.906 15.2267 13.787 15.0254 11.7744 11.1229C11.0845 9.7851 10.953 9.64412 10.5264 9.78488C9.84976 10.0082 9.90301 10.3457 10.984 12.685C11.1227 12.9851 11.2361 13.2431 11.2361 13.2584C11.2361 13.2738 11.3578 13.5507 11.5068 13.8737C12.3139 15.6253 12.5242 16.3377 12.2637 16.4377C12.0791 16.5085 11.7503 16.3324 11.48 16.0181C11.3425 15.8582 11.1733 15.664 11.1041 15.5866C11.0348 15.5093 10.8383 15.2718 10.6674 15.059C10.4965 14.8462 10.3404 14.6563 10.3205 14.6369C10.3006 14.6176 9.97505 14.2328 9.59714 13.7818C9.21915 13.3308 8.86093 12.943 8.80099 12.92C8.45635 12.7878 8 13.0487 8 13.3779C8 13.6653 8.6909 14.8215 10.129 16.9405C11.0303 18.2684 11.2421 18.7465 11.4461 19.9131C11.8781 22.3846 12.466 23.8997 13.2266 24.5023C13.7444 24.9126 13.759 24.9156 14.9781 24.8635L16.0946 24.8158L16.943 23.6835C17.4096 23.0607 17.828 22.5037 17.8729 22.4456C18.1983 22.0239 19.0448 20.5299 19.0448 20.3774C19.0448 20.3556 18.6049 20.3579 18.0673 20.3823C17.4053 20.4125 16.9455 20.3987 16.6427 20.3399C16.1178 20.2377 15.4567 19.9369 15.094 19.6351C14.5216 19.1588 14.3534 18.3134 14.7102 17.7047C14.9767 17.2499 15.3462 17.0548 16.1229 16.9585C16.7506 16.8808 17.4221 16.6978 18.3941 16.3399L18.9041 16.1521V15.3306C18.9041 14.489 19.0647 11.5539 19.1866 10.1698C19.2823 9.08146 19.2839 9.09328 19.0167 8.8261C18.8321 8.64157 18.7189 8.58691 18.5211 8.58691C18.0228 8.58691 17.9956 8.65571 17.5021 11.1555C17.2578 12.3932 17.0138 13.6591 16.9598 13.9686C16.842 14.6442 16.7495 14.8932 16.5939 14.9529C16.3906 15.031 16.2003 14.7126 16.1089 14.1418C16.0627 13.8531 15.9423 13.0945 15.8413 12.4561C15.6543 11.2736 15.2804 9.05832 15.2005 8.6586C15.1525 8.41877 14.8376 8.05999 14.6342 8.01349C14.5644 7.99752 14.4372 7.99541 14.3515 8.00885ZM23.723 15.2495C23.41 15.3238 22.5004 15.6532 22.0856 15.8425C21.8429 15.9533 21.6258 16.0439 21.6033 16.0439C21.5808 16.0439 20.988 16.3278 20.286 16.6749C18.8037 17.4076 17.0871 18.0136 16.4932 18.0138C16.0849 18.0139 15.6455 18.1946 15.6116 18.3762C15.5739 18.5794 16.0014 18.9814 16.4285 19.1441C16.8072 19.2883 16.9061 19.2943 18.2628 19.2542C19.4753 19.2186 19.7325 19.2289 19.9271 19.3213C20.2619 19.4801 20.3539 19.7508 20.243 20.2514C20.13 20.7618 19.5007 22.024 18.9935 22.7575C18.6639 23.2342 16.7021 25.845 15.5625 27.3235C15.1558 27.8512 15.1376 28.12 15.4851 28.4676C15.9352 28.9176 15.8771 28.9577 18.2957 26.5266C20.5532 24.2577 20.7416 24.1089 20.8437 24.5159C20.9058 24.7631 20.92 24.727 19.9164 26.8681C19.7465 27.2303 19.6076 27.5367 19.6076 27.5488C19.6076 27.561 19.493 27.8185 19.353 28.1212C18.2031 30.607 18.1562 30.774 18.489 31.197C18.608 31.3484 18.6899 31.3796 18.962 31.3778C19.1429 31.3766 19.3398 31.337 19.3994 31.2898C19.459 31.2427 19.8045 30.666 20.1673 30.0082C20.8028 28.8558 21.1759 28.1882 21.492 27.6375C22.6596 25.6031 22.6539 25.6114 22.8653 25.6114C23.0004 25.6114 23.0041 25.6442 22.9623 26.4732C22.9242 27.2301 22.8281 28.1321 22.5632 30.2193C22.4631 31.0073 22.4759 31.6696 22.5942 31.8257C22.7334 32.0094 23.2169 32.0613 23.4383 31.9163C23.6656 31.7673 23.7716 31.3909 24.035 29.7972C24.593 26.419 24.7329 25.7764 24.9539 25.5765C25.0901 25.4532 25.0998 25.4533 25.2421 25.5821C25.323 25.6554 25.4182 25.7695 25.4536 25.8357C25.4891 25.9018 25.5956 26.6936 25.6905 27.5952C25.9573 30.1327 25.9803 30.2641 26.1891 30.4479C26.4199 30.6511 26.6555 30.6487 26.897 30.4411C27.0809 30.2829 27.0915 30.2366 27.1524 29.3331C27.1873 28.8145 27.2018 27.7887 27.1845 27.0535C27.1509 25.6219 27.2168 24.4232 27.3521 24.0053C27.3981 23.8633 27.6176 23.3198 27.84 22.7974C28.0624 22.2751 28.3782 21.4362 28.5417 20.9332C29.0456 19.3828 29.0076 18.138 28.4388 17.5662C28.318 17.4448 27.9543 17.2033 27.6306 17.0296C27.2171 16.8078 26.828 16.5127 26.3226 16.0375C25.7453 15.4948 25.5399 15.3452 25.2827 15.2804C24.9702 15.2018 24.0047 15.1826 23.723 15.2495ZM29.2115 17.3062C29.1841 17.3926 29.2353 17.6285 29.3384 17.8907C29.5664 18.4703 29.6183 18.9806 29.5192 19.6669C29.3915 20.5513 29.3968 20.6483 29.5752 20.6737C29.8161 20.708 29.9389 20.4344 30.0285 19.663C30.1261 18.8228 30.0404 18.1825 29.7513 17.5916C29.5434 17.1667 29.2971 17.0365 29.2115 17.3062ZM30.4891 17.549C30.4684 17.6029 30.5153 17.8483 30.5933 18.0942C30.7771 18.6736 30.7418 19.5889 30.5087 20.2863C30.3628 20.7228 30.3585 20.7749 30.4599 20.8763C30.7 21.1165 30.946 20.7848 31.1134 19.995C31.2908 19.1582 31.216 18.1188 30.9415 17.6059C30.8481 17.4314 30.5487 17.3937 30.4891 17.549ZM11.0411 23.5833C10.8962 23.7282 10.9436 23.9348 11.2481 24.4858C11.7649 25.421 13.0134 26.4918 13.3049 26.25C13.5114 26.0786 13.4297 25.9206 12.9961 25.653C12.4543 25.3186 11.9773 24.7755 11.6197 24.0858C11.3346 23.536 11.2029 23.4216 11.0411 23.5833ZM10.041 24.0274C9.92968 24.1616 10.0187 24.4934 10.3433 25.1541C10.7889 26.0611 11.7528 26.9914 12.1062 26.8557C12.2933 26.784 12.2451 26.5002 12.0237 26.3694C11.4365 26.0225 10.866 25.2432 10.5674 24.3803C10.4121 23.9312 10.225 23.8057 10.041 24.0274Z" fill="#FDFDFD"/>
<defs>
<linearGradient id="paint0_linear_529_95" x1="42" y1="-1.38283e-06" x2="-9.5" y2="43" gradientUnits="userSpaceOnUse">
<stop stop-color="#3690FA"/>
<stop offset="1" stop-color="#2266D2"/>
</linearGradient>
</defs>
</svg>

<svg xmlns="http://www.w3.org/2000/svg" width="40" height="40" fill="none" xmlns:v="https://vecta.io/nano"><rect width="40" height="40" rx="8" fill="url(#A)"/><path fill-rule="evenodd" d="M14.352 8.009c-.086.013-.256.118-.379.233-.222.208-.223.212-.177.716l.115 1.352.211 4.783c-.216.133-.335-.068-2.347-3.97-.69-1.338-.821-1.479-1.248-1.338-.677.223-.623.561.458 2.9l.252.573c0 .015.122.292.271.615.807 1.752 1.017 2.464.757 2.564-.185.071-.513-.105-.784-.42l-.376-.431-.437-.528-.347-.422a65.52 65.52 0 0 1-.723-.855l-.796-.862c-.345-.132-.801.129-.801.458 0 .287.691 1.444 2.129 3.563.901 1.328 1.113 1.806 1.317 2.973.432 2.471 1.02 3.987 1.781 4.589.518.41.532.413 1.752.361l1.117-.048.848-1.132.93-1.238c.325-.422 1.172-1.916 1.172-2.068 0-.022-.44-.02-.977.005-.662.03-1.122.016-1.425-.042-.525-.102-1.186-.403-1.549-.705-.572-.476-.741-1.322-.384-1.93.266-.455.636-.65 1.413-.746.628-.078 1.299-.261 2.271-.619l.51-.188v-.822c0-.842.161-3.777.282-5.161.096-1.088.097-1.077-.17-1.344-.185-.185-.298-.239-.496-.239-.498 0-.526.069-1.019 2.569l-.542 2.813c-.118.676-.21.925-.366.984-.203.078-.394-.24-.485-.811l-.268-1.686-.641-3.797c-.048-.24-.363-.599-.566-.645-.07-.016-.197-.018-.283-.005zm9.372 7.241a13.73 13.73 0 0 0-1.637.593l-.482.201c-.023 0-.615.284-1.317.631-1.482.733-3.199 1.339-3.793 1.339-.408 0-.848.181-.882.362-.038.203.39.605.817.768.379.144.478.15 1.834.11 1.213-.036 1.47-.025 1.664.067.335.159.427.43.316.93-.113.51-.742 1.773-1.249 2.506l-3.431 4.566c-.407.528-.425.797-.077 1.144.45.45.392.49 2.811-1.941 2.258-2.269 2.446-2.418 2.548-2.011.062.247.076.211-.927 2.352l-.309.681a11.3 11.3 0 0 1-.255.572c-1.15 2.486-1.197 2.653-.864 3.076.119.151.201.183.473.181.181-.001.378-.041.437-.088s.405-.624.768-1.282l1.325-2.371c1.168-2.034 1.162-2.026 1.373-2.026.135 0 .139.033.097.862-.038.757-.134 1.659-.399 3.746-.1.788-.087 1.45.031 1.606.139.184.623.236.844.091.227-.149.333-.525.597-2.119.558-3.378.698-4.021.919-4.221.136-.123.146-.123.288.006.081.073.176.187.212.254s.142.858.237 1.759c.267 2.538.29 2.669.499 2.853.231.203.466.201.708-.007.184-.158.195-.204.255-1.108.035-.519.049-1.544.032-2.28-.034-1.432.032-2.63.168-3.048.046-.142.265-.685.488-1.208l.702-1.864c.504-1.55.466-2.795-.103-3.367-.121-.121-.485-.363-.808-.537-.414-.222-.803-.517-1.308-.992-.577-.543-.783-.692-1.04-.757a5.63 5.63 0 0 0-1.56-.031zm5.489 2.057c-.027.086.024.322.127.584.228.58.28 1.09.181 1.776-.128.884-.122.981.056 1.007.241.034.364-.239.453-1.011.098-.84.012-1.48-.277-2.071-.208-.425-.454-.555-.54-.285zm1.278.243c-.021.054.026.299.104.545.184.579.149 1.495-.085 2.192-.146.436-.15.489-.049.59.24.24.486-.091.653-.881.177-.837.103-1.876-.172-2.389-.093-.174-.393-.212-.452-.057zm-19.448 6.034c-.145.145-.098.351.207.902.517.935 1.765 2.006 2.057 1.764.207-.171.125-.329-.309-.597-.542-.334-1.019-.877-1.376-1.567-.285-.55-.417-.664-.579-.502zm-1 .444c-.111.134-.022.466.302 1.127.446.907 1.41 1.837 1.763 1.702.187-.072.139-.355-.082-.486-.587-.347-1.158-1.126-1.456-1.989-.155-.449-.342-.575-.526-.353z" fill="#fdfdfd"/><defs><linearGradient id="A" x1="42" y1="0" x2="-9.5" y2="43" gradientUnits="userSpaceOnUse"><stop stop-color="#3690fa"/><stop offset="1" stop-color="#2266d2"/></linearGradient></defs></svg>
